icons/svg/recents_18.svg

<svg width="18" height="18" viewBox="0 0 18 18" xmlns="http://www.w3.org/2000/svg"><title>phone/recents_18</title><path d="M9 17c-4.411 0-8-3.589-8-8 0-4.411 3.589-8 8-8 4.411 0 8 3.589 8 8 0 4.411-3.589 8-8 8M9 0c4.962 0 9 4.038 9 9 0 4.962-4.038 9-9 9-4.962 0-9-4.038-9-9 0-4.962 4.038-9 9-9zm.5 9.793l0-5.293c0-.276-.224-.5-.5-.5-.276 0-.5.224-.5.5l0 5.293c0 .263.107.521.293.707l2.353 2.354c.098.097.226.146.354.146.128 0 .256-.049.354-.146.195-.196.195-.512 0-.707L9.5 9.793z" fill-rule="evenodd"/></svg>

<?xml version="1.0" encoding="UTF-8"?>
<svg width="18px" height="18px" viewBox="0 0 18 18" version="1.1" xmlns="http://www.w3.org/2000/svg" xmlns:xlink="http://www.w3.org/1999/xlink">
    <!-- Generator: Sketch 60.1 (88133) - https://sketch.com -->
    <title>phone/recents_18</title>
    <desc>Created with Sketch.</desc>
    <g id="phone/recents_18" stroke="none" stroke-width="1" fill="none" fill-rule="evenodd">
        <path d="M9,0 C4.038,0 0,4.038 0,9 C0,13.962 4.038,18 9,18 C13.962,18 18,13.962 18,9 C18,4.038 13.962,0 9,0 M9,17 C4.589,17 1,13.411 1,9 C1,4.589 4.589,1 9,1 C13.411,1 17,4.589 17,9 C17,13.411 13.411,17 9,17 M9.5,9.793 L9.5,4.5 C9.5,4.224 9.276,4 9,4 C8.724,4 8.5,4.224 8.5,4.5 L8.5,9.793 C8.5,10.056 8.607,10.314 8.793,10.5 L11.146,12.854 C11.244,12.951 11.372,13 11.5,13 C11.628,13 11.756,12.951 11.854,12.854 C12.049,12.658 12.049,12.342 11.854,12.147 L9.5,9.793 Z" id="fill" fill="#171B1F"></path>
    </g>
</svg>
